wp-content/themes/fundawande/assets/video_player/Play_button.svg

<?xml version="1.0" encoding="UTF-8"?>
<svg width="218px" height="153px" fill="#000000" viewBox="0 0 218 153" version="1.1" xmlns="http://www.w3.org/2000/svg" xmlns:xlink="http://www.w3.org/1999/xlink">
    <!-- Generator: sketchtool 51.2 (57519) - http://www.bohemiancoding.com/sketch -->
    <title>7909C68C-1A3C-4AD7-85DE-20CAB885099F</title>
    <desc>Created with sketchtool.</desc>
    <defs></defs>
    <g id="4.-Lessons" stroke="none" stroke-width="1" fill-rule="evenodd">
        <g id="Lessons---Alternative-Footer-Progress-Bars-[Tablet]" transform="translate(-428.000000, -2871.000000)">
            <g id="Lesson-Content" transform="translate(25.000000, 2639.000000)">
                <g id="Video-+-Play-button" transform="translate(100.000000, 76.000000)">
                    <g id="Play-button" transform="translate(303.000000, 156.000000)">
                        <path d="M215.823095,33.0066061 C215.823095,33.0066061 213.693142,18.0161103 207.15645,11.4147891 C198.866709,2.75067474 189.574738,2.70765552 185.313552,2.20058239 C154.807638,0 109.047166,0 109.047166,0 L108.952407,0 C108.952407,0 63.1930021,0 32.6860209,2.20058239 C28.4246219,2.70765552 19.1360654,2.75067474 10.8433364,11.4147891 C4.30707132,18.0161103 2.18010671,33.0066061 2.18010671,33.0066061 C2.18010671,33.0066061 0,50.6104134 0,68.2140076 L0,84.7174172 C0,102.320798 2.18010671,119.924393 2.18010671,119.924393 C2.18010671,119.924393 4.30707132,134.915102 10.8433364,141.516423 C19.1360654,150.18075 30.0291292,149.906662 34.8808537,150.814751 C52.3210671,152.483556 109,153 109,153 C109,153 154.807638,152.931212 185.313552,150.730842 C189.574738,150.223556 198.866709,150.18075 207.15645,141.516423 C213.693142,134.915102 215.823095,119.924393 215.823095,119.924393 C215.823095,119.924393 218,102.320798 218,84.7174172 L218,68.2140076 C218,50.6104134 215.823095,33.0066061 215.823095,33.0066061 L215.823095,33.0066061 Z" id="Play-Button" fill-opacity="0.85" fill="inherit"></path>
                        <polygon id="Path-2" fill="#FFFFFF" points="85.8889124 103.108696 85.8787879 43.2391304 145.333333 73.2782154"></polygon>
                    </g>
                </g>
            </g>
        </g>
    </g>
</svg>

<svg width="218" height="153" viewBox="0 0 218 153" xmlns="http://www.w3.org/2000/svg">
    <title>Video Play Button</title> 
    <g fill-rule="evenodd">
    <path d="M215.823 33.007s-2.13-14.99-8.667-21.592c-8.29-8.664-17.582-8.707-21.843-9.214-30.506-2.201-76.266-2.201-76.266-2.201h-.095s-45.759 0-76.266 2.201c-4.261.507-13.55.55-21.843 9.214-6.536 6.601-8.663 21.592-8.663 21.592s-2.18 17.604-2.18 35.207v16.503c0 17.603 2.18 35.207 2.18 35.207s2.127 14.991 8.663 21.592c8.293 8.664 19.186 8.39 24.038 9.298 17.44 1.669 74.119 2.185 74.119 2.185s45.808-.069 76.314-2.269c4.261-.507 13.553-.55 21.843-9.214 6.537-6.601 8.667-21.592 8.667-21.592s2.177-17.604 2.177-35.207v-16.503c0-17.604-2.177-35.207-2.177-35.207z" fill-opacity=".85" fill="inherit"/>
    <path fill="#fff" d="M85.889 103.109l-.01-59.87 59.455 30.039z"/>
    </g>
</svg>
